pk/consume.svg

<svg viewBox="0 0 48 48" fill="none" xmlns="http://www.w3.org/2000/svg" height="1em" width="1em">
  <path d="M4 14C4 12.8954 4.89543 12 6 12H42C43.1046 12 44 12.8954 44 14V40C44 41.1046 43.1046 42 42 42H6C4.89543 42 4 41.1046 4 40V14Z" fill="#2F88FF" stroke="black" stroke-width="4" stroke-linejoin="round"/>
  <path d="M19 19L24 24L29 19" stroke="white" stroke-width="4" stroke-linecap="round" stroke-linejoin="round"/>
  <path d="M18 25H30" stroke="white" stroke-width="4" stroke-linecap="round" stroke-linejoin="round"/>
  <path d="M18 31H30" stroke="white" stroke-width="4" stroke-linecap="round" stroke-linejoin="round"/>
  <path d="M24 25V35" stroke="white" stroke-width="4" stroke-linecap="round" stroke-linejoin="round"/>
  <path d="M8 6H40" stroke="black" stroke-width="4" stroke-linecap="round" stroke-linejoin="round"/>
</svg>

<svg viewBox="0 0 48 48" fill="none" xmlns="http://www.w3.org/2000/svg" height="1em" width="1em">
  <path d="M4 14a2 2 0 0 1 2-2h36a2 2 0 0 1 2 2v26a2 2 0 0 1-2 2H6a2 2 0 0 1-2-2V14Z" fill="#2F88FF" stroke="#000" stroke-width="4" stroke-linejoin="round"/>
  <path d="m19 19 5 5 5-5m-11 6h12m-12 6h12m-6-6v10" stroke="#fff" stroke-width="4" stroke-linecap="round" stroke-linejoin="round"/>
  <path d="M8 6h32" stroke="#000" stroke-width="4" stroke-linecap="round" stroke-linejoin="round"/>
</svg>
